lib/flags/cl-chile.svg

<svg xmlns="http://www.w3.org/2000/svg" fill="none" aria-hidden="true" viewBox="0 0 42 30"><g id="Country=CL - Chile, Size=sm (36x24)" filter="url(#filter0_dd_91_28955)"><g clip-path="url(#clip0_91_28955)"><g id="flag"><mask id="mask0_91_28955" width="36" height="24" x="3" y="2" maskUnits="userSpaceOnUse" style="mask-type:alpha"><rect id="mask" width="36" height="24" x="3" y="2" fill="white"/></mask><g mask="url(#mask0_91_28955)"><g id="contents"><path id="4" fill="#3D58DB" fill-rule="evenodd" d="M3 2H18.75V16H3V2Z" clip-rule="evenodd"/><path id="3" fill="#F7FCFF" fill-rule="evenodd" d="M18.75 0H39V16H18.75V0Z" clip-rule="evenodd"/><path id="1" fill="#E31D1C" fill-rule="evenodd" d="M3 16H39V26H3V16Z" clip-rule="evenodd"/><g id="mark"><path id="Star 5" fill="#F7FCFF" fill-rule="evenodd" d="M10.8913 11.7833L6.61218 14.0548L8.72399 10.1899L4.98438 7.67975L9.30155 7.63865L10.9302 4.21143L11.9788 7.63865L16.0651 7.65578L12.9571 10.1109L14.571 14.0548L10.8913 11.7833Z" clip-rule="evenodd"/></g></g></g></g></g></g><defs><filter id="filter0_dd_91_28955" width="42" height="30" x="0" y="0" color-interpolation-filters="sRGB" filterUnits="userSpaceOnUse"><feFlood flood-opacity="0" result="BackgroundImageFix"/><feColorMatrix in="SourceAlpha" result="hardAlpha" values="0 0 0 0 0 0 0 0 0 0 0 0 0 0 0 0 0 0 127 0"/><feOffset dy="1"/><feGaussianBlur stdDeviation="1"/><feColorMatrix values="0 0 0 0 0.0627451 0 0 0 0 0.0941176 0 0 0 0 0.156863 0 0 0 0.06 0"/><feBlend in2="BackgroundImageFix" result="effect1_dropShadow_91_28955"/><feColorMatrix in="SourceAlpha" result="hardAlpha" values="0 0 0 0 0 0 0 0 0 0 0 0 0 0 0 0 0 0 127 0"/><feOffset dy="1"/><feGaussianBlur stdDeviation="1.5"/><feColorMatrix values="0 0 0 0 0.0627451 0 0 0 0 0.0941176 0 0 0 0 0.156863 0 0 0 0.1 0"/><feBlend in2="effect1_dropShadow_91_28955" result="effect2_dropShadow_91_28955"/><feBlend in="SourceGraphic" in2="effect2_dropShadow_91_28955" result="shape"/></filter><clipPath id="clip0_91_28955"><rect width="36" height="24" x="3" y="2" fill="white" rx="2"/></clipPath></defs></svg>

<svg xmlns="http://www.w3.org/2000/svg" fill="none" aria-hidden="true" viewBox="0 0 42 30"><g filter="url(#a)"><g clip-path="url(#b)"><mask id="c" width="36" height="24" x="3" y="2" maskUnits="userSpaceOnUse" style="mask-type:alpha"><path fill="#fff" d="M3 2h36v24H3z"/></mask><g fill-rule="evenodd" clip-rule="evenodd" mask="url(#c)"><path fill="#3D58DB" d="M3 2h15.75v14H3V2Z"/><path fill="#F7FCFF" d="M18.75 0H39v16H18.75V0Z"/><path fill="#E31D1C" d="M3 16h36v10H3V16Z"/><path fill="#F7FCFF" d="m10.891 11.783-4.279 2.272 2.112-3.865-3.74-2.51 4.318-.041L10.93 4.21l1.05 3.43 4.086.017-3.108 2.455 1.614 3.944-3.68-2.272Z"/></g></g></g><defs><clipPath id="b"><rect width="36" height="24" x="3" y="2" fill="#fff" rx="2"/></clipPath><filter id="a" width="42" height="30" x="0" y="0" color-interpolation-filters="sRGB" filterUnits="userSpaceOnUse"><feFlood flood-opacity="0" result="BackgroundImageFix"/><feColorMatrix in="SourceAlpha" result="hardAlpha" values="0 0 0 0 0 0 0 0 0 0 0 0 0 0 0 0 0 0 127 0"/><feOffset dy="1"/><feGaussianBlur stdDeviation="1"/><feColorMatrix values="0 0 0 0 0.0627451 0 0 0 0 0.0941176 0 0 0 0 0.156863 0 0 0 0.06 0"/><feBlend in2="BackgroundImageFix" result="effect1_dropShadow_91_28955"/><feColorMatrix in="SourceAlpha" result="hardAlpha" values="0 0 0 0 0 0 0 0 0 0 0 0 0 0 0 0 0 0 127 0"/><feOffset dy="1"/><feGaussianBlur stdDeviation="1.5"/><feColorMatrix values="0 0 0 0 0.0627451 0 0 0 0 0.0941176 0 0 0 0 0.156863 0 0 0 0.1 0"/><feBlend in2="effect1_dropShadow_91_28955" result="effect2_dropShadow_91_28955"/><feBlend in="SourceGraphic" in2="effect2_dropShadow_91_28955" result="shape"/></filter></defs></svg>
